library/css/icons/svgs/fi-social-game-center.svg

<svg xmlns="http://www.w3.org/2000/svg" width="100" height="100" viewBox="0 0 100 100"><path fill="#231F20" d="M79 14h-58c-3.866 0-7 3.134-7 7v58c0 3.866 3.134 7 7 7h58c3.866 0 7-3.134 7-7v-58c0-3.866-3.135-7-7-7zm-23.045 5.229c10.658 0 19.298 8.641 19.298 19.299 0 4.108-1.294 7.909-3.482 11.039-2.883-2.27-6.511-3.634-10.465-3.634-6.582 0-12.275 3.76-15.082 9.242-5.718-3.35-9.568-9.541-9.568-16.646 0-10.659 8.64-19.3 19.299-19.3zm-36.103 27.702c0-11.635 8.755-21.22 20.036-22.54-3.324 3.774-5.356 8.713-5.356 14.138 0 7.981 4.373 14.928 10.845 18.614-.267.742-.474 1.511-.64 2.295-1.087-.325-2.237-.505-3.429-.505-4.89 0-9.088 2.941-10.937 7.148-6.323-4.03-10.519-11.098-10.519-19.15zm21.454 34.145c-5.632 0-10.197-4.564-10.197-10.197 0-5.631 4.565-10.196 10.197-10.196 5.631 0 10.197 4.565 10.197 10.196 0 5.633-4.566 10.197-10.197 10.197zm20-3.25c-3.286 0-6.315-1.073-8.782-2.87.463-1.274.729-2.643.729-4.077 0-4.689-2.708-8.735-6.639-10.691 1.269-6.968 7.357-12.255 14.693-12.255 8.255 0 14.947 6.692 14.947 14.946-.001 8.256-6.693 14.947-14.948 14.947z"/></svg>

<?xml version="1.0" encoding="utf-8"?>
<!-- Generator: Adobe Illustrator 17.0.0, SVG Export Plug-In . SVG Version: 6.00 Build 0)  -->
<!DOCTYPE svg PUBLIC "-//W3C//DTD SVG 1.1//EN" "http://www.w3.org/Graphics/SVG/1.1/DTD/svg11.dtd">
<svg version="1.1" id="Layer_1" xmlns="http://www.w3.org/2000/svg" xmlns:xlink="http://www.w3.org/1999/xlink" x="0px" y="0px"
	 width="100px" height="100px" viewBox="0 0 100 100" enable-background="new 0 0 100 100" xml:space="preserve">
<g>
	<path fill="#231F20" d="M79,14H21c-3.866,0-7,3.134-7,7v58c0,3.866,3.134,7,7,7h58c3.866,0,7-3.134,7-7V21
		C86,17.134,82.865,14,79,14z M55.955,19.229c10.658,0,19.298,8.641,19.298,19.299c0,4.108-1.294,7.909-3.482,11.039
		c-2.883-2.27-6.511-3.634-10.465-3.634c-6.582,0-12.275,3.76-15.082,9.242c-5.718-3.35-9.568-9.541-9.568-16.646
		C36.656,27.87,45.296,19.229,55.955,19.229z M19.852,46.931c0-11.635,8.755-21.22,20.036-22.54
		c-3.324,3.774-5.356,8.713-5.356,14.138c0,7.981,4.373,14.928,10.845,18.614c-0.267,0.742-0.474,1.511-0.64,2.295
		c-1.087-0.325-2.237-0.505-3.429-0.505c-4.89,0-9.088,2.941-10.937,7.148C24.048,62.051,19.852,54.983,19.852,46.931z
		 M41.306,81.076c-5.632,0-10.197-4.564-10.197-10.197c0-5.631,4.565-10.196,10.197-10.196c5.631,0,10.197,4.565,10.197,10.196
		C51.503,76.512,46.937,81.076,41.306,81.076z M61.306,77.826c-3.286,0-6.315-1.073-8.782-2.87c0.463-1.274,0.729-2.643,0.729-4.077
		c0-4.689-2.708-8.735-6.639-10.691c1.269-6.968,7.357-12.255,14.693-12.255c8.255,0,14.947,6.692,14.947,14.946
		C76.253,71.135,69.561,77.826,61.306,77.826z"/>
</g>
</svg>
